Hatter-kde/actions/22/backgroundtool.svg

<svg xmlns="http://www.w3.org/2000/svg" viewBox="0 0 22 22">
  <defs id="defs3051">
    <style type="text/css" id="current-color-scheme">
      .ColorScheme-Text {
        color:#363636;
      }
      </style>
  </defs>
 <path 
     style="fill:currentColor;fill-opacity:1;stroke:none" 
     d="M 3 3.9941406 L 3 4.9941406 L 3 12.994141 L 3 13.994141 L 3.0117188 13.994141 L 3 14.005859 L 6.9921875 17.998047 L 7.0039062 17.998047 L 8.4101562 17.998047 L 10.001953 17.998047 L 10.001953 16.998047 L 9.0019531 16.998047 L 7.9980469 16.998047 L 7.9980469 12.998047 L 6.9980469 12.998047 L 3.9980469 12.998047 L 3.9980469 4.9980469 L 17.998047 4.9980469 L 17.998047 10 L 19.001953 10 C 19.002675 10.01886 19.003906 7.9934091 19.003906 4.9980469 L 19.003906 3.9980469 L 19 3.9980469 L 19 3.9941406 L 3 3.9941406 z M 17.001953 10 L 16.001953 11 L 11.001953 16 L 11.001953 17 L 11.001953 18 L 13.001953 18 L 14.001953 17 L 18.001953 13 L 19.001953 12 L 17.001953 10 z M 16.720703 11.6875 L 17.283203 12.28125 L 12.314453 17.28125 L 11.720703 16.6875 L 16.720703 11.6875 z "
	 class="ColorScheme-Text"
     />
</svg>

<?xml version="1.0" encoding="UTF-8"?>
<svg viewBox="0 0 22 22" xmlns="http://www.w3.org/2000/svg">
 <defs id="defs3051">
  <style id="current-color-scheme" type="text/css">.ColorScheme-Text {
        color:#363636;
      }</style>
 </defs>
 <path class="ColorScheme-Text" d="m3 3.9941v1 8 1h0.011719l-0.011719 0.011718 3.9922 3.9922h0.011719 1.4062 1.5918v-1h-1-1.0039v-4h-1-3v-8h14v5.002h1.0039c7.22e-4 0.01886 0.001953-2.0066 0.001953-5.002v-1h-0.003906v-0.0039063h-16zm14.002 6.0059-6 6v1 1h2l6-6-2-2zm-0.28125 1.6875 0.5625 0.59375-4.9688 5-0.59375-0.59375 5-5z" fill="currentColor"/>
</svg>
